X: 148
T: The Little Pickle
T: Jig, A
C: D. Lowe
L: 1/16
M: 6/8
K: A
|: A6 c2B2A2| E2A2B2 c2B2A2| d2c2B2 f2d2B2| b2g2e2 e2f2g2| a6 c2B2A2| E2A2B2 c2B2A2| d2c2d2 e2f2g2| a2e2c2 A4B2:| 
|: A4a2 a2g2a2| A2c2d2 e2c2A2| B4=g2 g2f2g2| B2=G2B2 d2c2B2| A4a2 a2g2a2| A2c2d2 e2c2A2| d2c2d2 e2f2g2| a2e2c2 A4B2:|
